icons/048/facebook.svg

<?xml version="1.0" encoding="UTF-8" standalone="no"?>
<svg
   xmlns:dc="http://purl.org/dc/elements/1.1/"
   xmlns:cc="http://creativecommons.org/ns#"
   xmlns:rdf="http://www.w3.org/1999/02/22-rdf-syntax-ns#"
   xmlns:svg="http://www.w3.org/2000/svg"
   xmlns="http://www.w3.org/2000/svg"
   version="1.1"
   id="svg2"
   viewBox="0 0 48 48"
   height="48"
   width="48">
  <metadata
     id="metadata10">
    <rdf:RDF>
      <cc:Work
         rdf:about="">
        <dc:format>image/svg+xml</dc:format>
        <dc:type
           rdf:resource="http://purl.org/dc/dcmitype/StillImage" />
        <dc:title></dc:title>
      </cc:Work>
    </rdf:RDF>
  </metadata>
  <defs
     id="defs8" />
  <path
     style="fill:#ffffff;fill-opacity:1"
     id="rect4"
     d="M 7 5 C 5.892 5 5 5.892 5 7 L 5 41 C 5 42.108 5.892 43 7 43 L 21.5 43 L 21.5 30 L 17 30 L 17 24 L 21.5 24 L 21.5 19.25 C 21.5 15.25 24.75 12 28.75 12 L 32.5 12 L 32.5 18 L 28.75 18 C 28.1 18 27.5 18.6 27.5 19.25 L 27.5 24 L 32.5 24 L 32.5 30 L 27.5 30 L 27.5 43 L 39.5 43 C 39.672497 43 39.835583 42.974795 40 42.953125 L 40 43 L 41 43 C 42.108 43 43 42.108 43 41 L 43 7 C 43 5.892 42.108 5 41 5 L 7 5 z " />
</svg>

<?xml version="1.0" encoding="UTF-8" standalone="no"?>
<svg xmlns="http://www.w3.org/2000/svg" viewBox="0 0 48 48" width="48" version="1.1" height="48"><path fill="#fff" d="m7 5c-1.108 0-2 0.892-2 2v34c0 1.11 0.892 2 2 2h14.5v-13h-4.5v-6h4.5v-4.75c0-4 3.25-7.25 7.25-7.25h3.75v6h-3.75c-0.65 0-1.25 0.6-1.25 1.25v4.75h5v6h-5v13h12c0.17 0 0.34-0.03 0.5-0.05v0.05h1c1.11 0 2-0.89 2-2v-34c0-1.108-0.89-2-2-2h-34z"/></svg>
